icons/op-inbox-in-16.svg

<svg width="16" height="16" viewBox="0 0 16 16" fill="none" xmlns="http://www.w3.org/2000/svg">
<path fill-rule="evenodd" clip-rule="evenodd" d="M2.80089 2.06064C3.07666 1.41719 3.70935 1 4.4094 1H5.4547C5.86891 1 6.2047 1.33579 6.2047 1.75C6.2047 2.16421 5.86891 2.5 5.4547 2.5H4.4094C4.30939 2.5 4.219 2.5596 4.17961 2.65152L1.8874 8H4.75C4.98607 8 5.20836 8.11115 5.35 8.3L6.625 10H9.375L10.65 8.3C10.7916 8.11115 11.0139 8 11.25 8H14.1126L11.8204 2.65152C11.781 2.5596 11.6906 2.5 11.5906 2.5H10.5453C10.1311 2.5 9.7953 2.16421 9.7953 1.75C9.7953 1.33579 10.1311 1 10.5453 1H11.5906C12.2907 1 12.9233 1.4172 13.1991 2.06064L15.9394 8.45456C15.9794 8.54792 16 8.64843 16 8.75V13.25C16 14.2165 15.2165 15 14.25 15H1.75C0.783502 15 0 14.2165 0 13.25V8.75C0 8.64843 0.0206308 8.54792 0.0606412 8.45456L2.80089 2.06064ZM11.625 9.5H14.5V13.25C14.5 13.3881 14.3881 13.5 14.25 13.5H1.75C1.61193 13.5 1.5 13.3881 1.5 13.25V9.5H4.375L5.65 11.2C5.79164 11.3889 6.01393 11.5 6.25 11.5H9.75C9.98607 11.5 10.2084 11.3889 10.35 11.2L11.625 9.5Z" fill="#24292F"/>
<path d="M8.64694 3.5L8.64695 0.75C8.64695 0.335786 8.31116 0 7.89695 0C7.48274 0 7.14695 0.335786 7.14695 0.75L7.14694 3.5H5.00049C4.77777 3.5 4.66623 3.76928 4.82372 3.92678L7.72016 6.82322C7.81779 6.92085 7.97609 6.92086 8.07372 6.82322L10.9702 3.92678C11.1277 3.76929 11.0161 3.5 10.7934 3.5H8.64694Z" fill="#24292F"/>
</svg>

<svg xmlns="http://www.w3.org/2000/svg" width="16" height="16" viewBox="0 0 16 16"><path d="M2.801 2.061A1.75 1.75 0 0 1 4.409 1h1.046a.75.75 0 0 1 0 1.5H4.409c-.1 0-.19.06-.229.152L1.887 8H4.75a.75.75 0 0 1 .6.3L6.625 10h2.75l1.275-1.7a.75.75 0 0 1 .6-.3h2.863L11.82 2.652a.249.249 0 0 0-.229-.152h-1.046a.75.75 0 0 1 0-1.5h1.046c.7 0 1.332.417 1.608 1.061l2.74 6.394c.04.093.061.193.061.295v4.5A1.75 1.75 0 0 1 14.25 15H1.75A1.75 1.75 0 0 1 0 13.25v-4.5c0-.102.021-.202.061-.295ZM11.625 9.5l-1.275 1.7a.75.75 0 0 1-.6.3h-3.5a.75.75 0 0 1-.6-.3L4.375 9.5H1.5v3.75c0 .138.112.25.25.25h12.5a.25.25 0 0 0 .25-.25V9.5Z"/><path d="M8.647 3.5V.75a.75.75 0 0 0-1.5 0V3.5H5a.25.25 0 0 0-.176.427L7.72 6.823a.25.25 0 0 0 .354 0l2.896-2.896a.25.25 0 0 0-.177-.427H8.647Z"/></svg>
